!!!OTL: Rundgesang. Gesellige Freude.
!!!OTL-incipit: WAS PERLET IM GLASE
!!!ARE: Europa, Mitteleuropa, Deutschland
!!!SCT: F0726
!!!TXL: @@DE
!!!YEM: Copyright 1995, estate of Helmut Schaffrath.
**kern	**text
*ICvox	*
*clefG2	*
*M3/4	*
*k[]	*
*C:	*
!LO:TX:a:t=Solo.	!
!LO:TX:a:t=Munter und nicht ʒu ſchnell.	!
!LO:TX:a:t=Für 4 Männerſtimmen ohne, einſtimmig mit Begleitung.	!
!LO:TX:a:t=P:only the highest voice encoded:problem	!
{4g	1._Was
=1	=1
(8cc/L	per-
8bJ)	.
8cc/L	-let
8ddJ	.
(8ee/L	im
8ffJ)	.
=2	=2
4gg/	Gla-
8ff/L	-ſe,
8eeJ}	.
{8dd/L	was
8ccJ	.
=3	=3
8b/L	ſchäumet
8ddJ	.
4ff/	.
8aL	im
8bJ	.
=4	=4
8cc/L	Becher?
8eeJ	.
4g}	.
{8b/L	was
8ccJ	.
=5	=5
4dd/	he-
8dd/L	-bet
8cc#J	.
4dd/	die
=6	=6
4gg	Pul-
(8ff#L	-ſe,
8eeJ)}	.
{(8ddL	ihr
8cc#J)	.
=7	=7
4dd/	fröhli-
4b/	.
4a	-chen
=8	=8
8aL	Ʒe-
8bJ	.
4b/}	-cher?
{4g	Sagt
=9	=9
4.g	iſt
8a	es
4g	al-
=10	=10
(>4cc	-lein
8ee/L	.
8bJ)}	.
{8cc/L	der
8aJ	.
=11	=11
8gL	gol-
8aJ	.
8b/L	-de-
8ccJ	.
4dd/	-ne
=12	=12
2ee/}	Wein?
!LO:TX:a:t=Alle.	!
{4dd/	Sagt
=13	=13
4.dd/	iſt
8ee/	es
4dd/	al-
=14	=14
8gg/L	-lein
8dd#	.
8ee	.
8bJ}	.
{8cc/L	der
8aJ	.
=15	=15
(>4g	gol-
32aLqq	.
32gqq	.
32f#qq	.
32gJqq	.
4b/)	-de-
4a	-ne
=16	=16
2g	Wein?
4r}	.
=17	=17
!LO:TX:a:t=Solo.	!
{8g	Nein,
8a	nein,
8b/	nein,
8cc/	nein,
8dd/	nein,
8ee/	o
=18	=18
2ff/;}	nein!
!LO:TX:a:t=Das ʒweite Mal Alle.	!
{4ee/	Wir
=19	=19
4.ff/	füh-
8dd/	-len
8cc/L	der
8bJ	.
=20	=20
8cc/L	Freu-
8eeJ	.
4g}	-de
{8ee/L	be-
8ccJ	.
=21	=21
8b/L	-ſee-
8ddJ	.
4gg	-len-
4ff	-den
=22	=22
2ee}	Strahl,
{4ee	der
=23	=23
4ee	glüht
4ee	in
4ee	den
=24	=24
4gg	A-
4ff}	-dern
{8ee/L	und
8ddJ	.
=25	=25
4cc/	perlt
4dd/	im
4b/	Po-
=26	=26
2cc/}	-kal!
{4ee/	Wir
=27	=27
4.ff/	füh-
8dd/	-len
8cc/L	der
8bJ	.
=28	=28
8cc/L	Freu-
8eeJ	.
4g}	-de
{8ee/L	be-
8ccJ	.
=29	=29
8b/L	-ſee-
8ddJ	.
4gg	-len-
4ff	-den
=30	=30
2ee}	Strahl,
{4ee	der
=31	=31
4ee	glüht
4ee	in
4ee	den
=32	=32
4gg	A-
4ff}	-dern
{8ee/L	und
8ddJ	.
=33	=33
4cc/	perlt
4dd/	im
4b/	Po-
=34	=34
2cc/}	-kal!
==;	==;
!!!AGN: Geselligkeits -, Trink - Lied, Rundgesang
!!!ONB: ESAC (Essen Associative Code) Database: FINK
!!!AMT: simple triple
!!!AIN: vox
!!!EED: Helmut Schaffrath
!!!EEV: 1.0
!!!RDF**kern: > = above
!!!GTL: Liedertafel- und Gesellschaftslieder
!!!source: Musikalischer Hausschatz der Deutschen. Eine Sammlung von über 1000 Liedern und Gesängen mit Singstimmen und Klavierbegleitung. Leipzig, Litterarisches Verlags-Haus.
!!!page: 496
!!!URL-scan: https://www.digitale-sammlungen.de/en/view/bsb11144622?page=447
!!!ENC: Anna Maria Matuszewska
!!!EEV: 2024/08/05
*-	*-
